X:1
T:Title
%%score { ( 1 3 ) | ( 2 4 ) }
L:1/8
M:4/4
K:Eb
V:1 treble nm="Grand Piano"
V:3 treble 
V:2 bass 
V:4 bass 
V:1
 z4 z2[Q:1/4=100] [GB]>[FA] | G2 G>G G>F E>G | [GB]2 [Ac]2 [GB]2 [GB]>[GB] | %3
 [Ge]2 [Ge]2 [Ge]>[B,GB] [B,FA]>[B,EG] | F4 z2 [DB]>[FA] | G2 G>G G>F E>G | %6
 [GB]2 [Ac]2 [GB]2 [GB]>[GB] | c>c e>c B2 [DG]>[DF] |[M:11/16] E/-E/-E/-E/-E/-E/-E-<E z/ | %9
[M:5/16] G<Be/ |[M:4/4] d6 z2 | B6 z2 | c2 c2 c2 d>e | F6 z2 | [Ge]>[Ge] [Ad]>[Ac] [GB]2 G>E | %15
[M:9/8] c2 c- c e2- eE>F |[M:4/4] G>B B>c B2 [DG]>[DF] |[M:3/4] E6 |] %18
V:2
 z4 z2 [E,B,]>[E,B,] | [E,B,E]2 [E,B,E]>[E,B,E] [E,B,E]>[E,A,E] [E,G,]>[E,B,E] | %2
 [E,E]2 [E,E]2 [E,E]2 [E,E]>[E,E] | [E,B,]2 [E,B,]2 [E,B,]>E, D,>E, | %4
 z4[K:treble] B2[K:bass] [B,,B,]>[B,,B,] | %5
 [E,B,E]2 [E,B,E]>[E,B,E] [E,B,E]>[E,A,E] [E,G,]>[E,B,E] | [E,E]2 [E,E]2 [E,E]2 [E,E]>[E,E] | %7
 [A,EA]>[A,EA] [A,CA]>[A,EA] [B,EG]2[K:bass] [B,,B,]>[B,,A,] | %8
[M:11/16] [E,G,]/-[E,G,]/-[E,G,]/-[E,G,]/-[E,G,]/-[E,G,]/-[E,G,]-<[E,G,] z/ |[M:5/16] z5/2 | %10
[M:4/4] z z/[K:treble] [B,F]/ [B,F]>[B,F] [B,F]2 z2 | %11
 z z/[K:bass] [E,E]/ [E,E]>[E,E] [E,E]2 [E,G,E]>[E,G,E] | [A,E]2 [A,E]2 [F,=A,F]2 [F,A,F]>[F,A,F] | %13
 [B,,B,]2 B,,>B,, z2 A2 | [E,B,]>[E,B,] [E,C]>[E,D] [E,E]2 [E,B,E]>[E,G,] | %15
[M:9/8][K:treble] [A,E]2 [A,E]- [A,E] [A,CA]2- [A,CA][A,C]>[A,CE] | %16
[M:4/4] [B,E]>[B,EG] [B,EG]>[B,EG] [B,EG]2[K:bass] [B,,B,]>[B,,A,] |[M:3/4] [E,G,]6 |] %18
V:3
 x8 | x8 | x8 | x8 | [B,D]6 z2 | x8 | x8 | x8 |[M:11/16] x11/2 |[M:5/16] x5/2 | %10
[M:4/4] z z/ A/ A>A A>F A>c | z z/ G/ G>G G2 B>B | x8 | d2- [B,d-]>[B,d-] [B,d]4 | x8 |[M:9/8] x9 | %16
[M:4/4] x8 |[M:3/4] x6 |] %18
V:4
 x8 | x8 | x8 | x8 | B,,6[K:treble][K:bass] z2 | x8 | x8 | x6[K:bass] x2 |[M:11/16] x11/2 | %9
[M:5/16] x5/2 |[M:4/4] x3/2[K:treble] x13/2 | x3/2[K:bass] x13/2 | x8 | z4 B,,4 | x8 | %15
[M:9/8][K:treble] x9 |[M:4/4] x6[K:bass] x2 |[M:3/4] x6 |] %18

